ubuntu-mono-light/status/22/battery-100-charging.svg

<?xml version="1.0" encoding="UTF-8" standalone="no"?>
<!-- Created with Inkscape (http://www.inkscape.org/) -->
<svg
   xmlns:dc="http://purl.org/dc/elements/1.1/"
   xmlns:cc="http://creativecommons.org/ns#"
   xmlns:rdf="http://www.w3.org/1999/02/22-rdf-syntax-ns#"
   xmlns:svg="http://www.w3.org/2000/svg"
   xmlns="http://www.w3.org/2000/svg"
   xmlns:sodipodi="http://sodipodi.sourceforge.net/DTD/sodipodi-0.dtd"
   xmlns:inkscape="http://www.inkscape.org/namespaces/inkscape"
   version="1.0"
   width="32"
   height="22"
   id="svg3240"
   sodipodi:version="0.32"
   inkscape:version="0.46"
   sodipodi:docname="battery-100-charging.svg"
   inkscape:output_extension="org.inkscape.output.svg.inkscape">
  <metadata
     id="metadata12">
    <rdf:RDF>
      <cc:Work
         rdf:about="">
        <dc:format>image/svg+xml</dc:format>
        <dc:type
           rdf:resource="http://purl.org/dc/dcmitype/StillImage" />
      </cc:Work>
    </rdf:RDF>
  </metadata>
  <sodipodi:namedview
     inkscape:window-height="706"
     inkscape:window-width="640"
     inkscape:pageshadow="2"
     inkscape:pageopacity="0.0"
     guidetolerance="10.0"
     gridtolerance="10.0"
     objecttolerance="10.0"
     borderopacity="1.0"
     bordercolor="#666666"
     pagecolor="#ffffff"
     id="base"
     showgrid="false"
     inkscape:zoom="17.375"
     inkscape:cx="14.070994"
     inkscape:cy="11"
     inkscape:window-x="0"
     inkscape:window-y="24"
     inkscape:current-layer="svg3240" />
  <defs
     id="defs3242">
    <inkscape:perspective
       sodipodi:type="inkscape:persp3d"
       inkscape:vp_x="0 : 11 : 1"
       inkscape:vp_y="0 : 1000 : 0"
       inkscape:vp_z="32 : 11 : 1"
       inkscape:persp3d-origin="16 : 7.3333333 : 1"
       id="perspective14" />
  </defs>
  <g
     id="g2391"
     transform="matrix(-1,0,0,1,32,0)">
    <path
       style="opacity:1;fill:#3a3935;fill-opacity:1;fill-rule:nonzero;stroke:none;stroke-width:1;stroke-linecap:round;stroke-linejoin:miter;marker:none;marker-start:none;marker-mid:none;marker-end:none;stroke-miterlimit:4;stroke-dasharray:none;stroke-dashoffset:0;stroke-opacity:1;visibility:visible;display:inline;overflow:visible;enable-background:accumulate"
       id="rect2401"
       d="M 7,5 C 5.892,5 5,5.892 5,7 L 5,15 C 5,16.108 5.892,17 7,17 L 25,17 C 26.108,17 27,16.108 27,15 L 27,14 L 28,14 C 29.108,14 30,13.108 30,12 L 30,10 C 30,8.892 29.108,8 28,8 L 27,8 L 27,7 C 27,5.892 26.108,5 25,5 L 7,5 z M 7,6 L 25,6 C 25.554,6 26,6.446 26,7 L 26,15 C 26,15.554 25.554,16 25,16 L 7,16 C 6.446,16 6,15.554 6,15 L 6,7 C 6,6.446 6.446,6 7,6 z M 27,9 L 28,9 C 28.554,9 29,9.446 29,10 L 29,12 C 29,12.554 28.554,13 28,13 L 27,13 L 27,9 z" />
    <rect
       style="opacity:0.4;fill:#3a3935;fill-opacity:1;fill-rule:evenodd;stroke:none;stroke-width:1.69999993;stroke-linecap:round;stroke-linejoin:miter;marker:none;marker-start:none;marker-mid:none;marker-end:none;stroke-miterlimit:4;stroke-dasharray:none;stroke-dashoffset:0;stroke-opacity:1;visibility:visible;display:inline;overflow:visible;enable-background:accumulate"
       id="rect3190"
       transform="matrix(0,1,-1,0,0,0)"
       y="-25"
       x="7"
       ry="0.5"
       rx="0.5"
       height="18"
       width="8" />
    <rect
       style="opacity:0.3;fill:none;fill-opacity:1;fill-rule:nonzero;stroke:#000000;stroke-width:0.49999994;stroke-linecap:round;stroke-linejoin:miter;marker:none;marker-start:none;marker-mid:none;marker-end:none;stroke-miterlimit:4;stroke-dasharray:none;stroke-dashoffset:0;stroke-opacity:1;visibility:visible;display:inline;overflow:visible;enable-background:accumulate"
       id="rect3192"
       y="6.2499995"
       x="6.2499995"
       ry="0.75"
       rx="0.75"
       height="9.500001"
       width="19.5" />
    <path
       style="opacity:0.6;fill:#eae3d0;fill-opacity:1;fill-rule:nonzero;stroke:none;stroke-width:1;stroke-linecap:round;stroke-linejoin:miter;marker:none;marker-start:none;marker-mid:none;marker-end:none;stroke-miterlimit:4;stroke-dasharray:none;stroke-dashoffset:0;stroke-opacity:1;visibility:visible;display:inline;overflow:visible;enable-background:accumulate"
       id="path3194"
       d="M 28,14 L 27,14 L 27,15 C 27,16.436187 26,17 25,17 L 7,17 C 6,17 5,16.191135 5,15 L 5,7 C 5,5.825202 6,5 7,5 L 25,5 C 26.174798,5 27,5.8366321 27,7 L 27,8 L 28,8 C 29,8 30,8.8039585 30,10 L 30,12 C 30,13.196607 28.99708,14 28,14 z M 6.5227772,4 C 5.4147772,4 4,5.4637876 4,6.5717876 L 4,15.477223 C 4,16.585223 5.431114,18 6.539114,18 L 25.526233,18 C 26.634233,18 28,17 28,15.54257 L 28,15 L 28.428212,15 C 30,15 31,13.65057 31,12.411876 L 31,9.5 C 31,8.392 30,7 28.5,7 L 28,7 L 28,6.4737669 C 28,5.2187358 26.764927,4 25.477223,4 L 6.5227772,4 z" />
    <path
       style="opacity:0.3;fill:none;fill-rule:evenodd;stroke:#000000;stroke-width:0.5;stroke-linecap:butt;stroke-linejoin:miter;stroke-miterlimit:4;stroke-dasharray:none;stroke-opacity:1"
       id="path3196"
       d="M 27.25,9.2244976 L 27.25,12.75 C 28.003172,12.75 28.75,12.79671 28.75,12 L 28.75,10 C 28.75,9.2098004 27.999818,9.2244976 27.25,9.2244976 z" />
  </g>
  <g
     id="g2387">
    <path
       style="opacity:0.3;fill:#000000;fill-opacity:1;fill-rule:evenodd;stroke:none"
       id="path3160"
       d="M 14.865601,6.5366347 C 14.67077,6.6085407 14.544541,6.7978849 14.553101,7.0053847 L 14.553101,10.224135 L 9.2406012,7.5678847 C 9.0162352,7.4211841 8.7154272,7.484144 8.5687262,7.7085097 C 8.4220252,7.9328754 8.4849852,8.2336841 8.7093512,8.3803847 L 16.709351,15.380385 C 16.853132,15.497737 17.051794,15.521391 17.219109,15.441079 C 17.386425,15.360768 17.49223,15.19097 17.490601,15.005385 L 17.490601,12.692885 L 21.834351,14.442885 C 22.047051,14.541842 22.300123,14.472052 22.432037,14.278062 C 22.563951,14.084071 22.53582,13.823063 22.365601,13.661635 L 15.365601,6.6616347 C 15.237511,6.5261307 15.042388,6.4773497 14.865601,6.5366347 z" />
    <path
       style="fill:#3a3935;fill-opacity:1;fill-rule:evenodd;stroke:none"
       id="path3172"
       d="M 22.002212,14.005385 L 15.002213,7.0053848 L 15.002213,11.005385 L 9.0022119,8.0053848 L 17.002213,15.005385 L 17.002213,12.005385 L 22.002212,14.005385 z" />
  </g>
</svg>

<?xml version="1.0" encoding="UTF-8" standalone="no"?>
<!-- Created with Inkscape (http://www.inkscape.org/) -->

<svg
   xmlns:dc="http://purl.org/dc/elements/1.1/"
   xmlns:cc="http://creativecommons.org/ns#"
   xmlns:rdf="http://www.w3.org/1999/02/22-rdf-syntax-ns#"
   xmlns:svg="http://www.w3.org/2000/svg"
   xmlns="http://www.w3.org/2000/svg"
   xmlns:sodipodi="http://sodipodi.sourceforge.net/DTD/sodipodi-0.dtd"
   xmlns:inkscape="http://www.inkscape.org/namespaces/inkscape"
   version="1.0"
   width="32"
   height="22"
   id="svg3240"
   sodipodi:version="0.32"
   inkscape:version="0.47 r22583"
   sodipodi:docname="battery-100-charging.svg"
   inkscape:output_extension="org.inkscape.output.svg.inkscape">
  <metadata
     id="metadata12">
    <rdf:RDF>
      <cc:Work
         rdf:about="">
        <dc:format>image/svg+xml</dc:format>
        <dc:type
           rdf:resource="http://purl.org/dc/dcmitype/StillImage" />
      </cc:Work>
    </rdf:RDF>
  </metadata>
  <sodipodi:namedview
     inkscape:window-height="706"
     inkscape:window-width="640"
     inkscape:pageshadow="2"
     inkscape:pageopacity="0.0"
     guidetolerance="10.0"
     gridtolerance="10.0"
     objecttolerance="10.0"
     borderopacity="1.0"
     bordercolor="#666666"
     pagecolor="#ffffff"
     id="base"
     showgrid="false"
     inkscape:zoom="8.6875"
     inkscape:cx="14.070994"
     inkscape:cy="10.884892"
     inkscape:window-x="0"
     inkscape:window-y="24"
     inkscape:current-layer="svg3240"
     inkscape:window-maximized="0" />
  <defs
     id="defs3242" />
  <g
     id="g2391">
    <path
       style="fill:#3a3935;fill-opacity:1;fill-rule:nonzero;stroke:none;stroke-width:1;marker:none;visibility:visible;display:inline;overflow:visible;enable-background:accumulate"
       id="rect2401"
       d="M 7,5 C 5.892,5 5,5.892 5,7 l 0,8 c 0,1.108 0.892,2 2,2 l 18,0 c 1.108,0 2,-0.892 2,-2 l 0,-1 1,0 c 1.108,0 2,-0.892 2,-2 l 0,-2 C 30,8.892 29.108,8 28,8 L 27,8 27,7 C 27,5.892 26.108,5 25,5 L 7,5 z m 0,1 18,0 c 0.554,0 1,0.446 1,1 l 0,8 c 0,0.554 -0.446,1 -1,1 L 7,16 C 6.446,16 6,15.554 6,15 L 6,7 C 6,6.446 6.446,6 7,6 z m 20,3 1,0 c 0.554,0 1,0.446 1,1 l 0,2 c 0,0.554 -0.446,1 -1,1 l -1,0 0,-4 z" />
    <rect
       style="opacity:0.4;fill:#3a3935;fill-opacity:1;fill-rule:evenodd;stroke:none;stroke-width:1.69999993;marker:none;visibility:visible;display:inline;overflow:visible;enable-background:accumulate"
       id="rect3190"
       transform="matrix(0,1,-1,0,0,0)"
       y="-25"
       x="7"
       ry="0.5"
       rx="0.5"
       height="18"
       width="8" />
    <rect
       style="opacity:0.3;fill:none;stroke:#000000;stroke-width:0.49999994;stroke-linecap:round;stroke-linejoin:miter;stroke-miterlimit:4;stroke-opacity:1;stroke-dasharray:none;stroke-dashoffset:0;marker:none;visibility:visible;display:inline;overflow:visible;enable-background:accumulate"
       id="rect3192"
       y="6.2499995"
       x="6.2499995"
       ry="0.75"
       rx="0.75"
       height="9.500001"
       width="19.5" />
    <path
       style="opacity:0.6;fill:#eae3d0;fill-opacity:1;fill-rule:nonzero;stroke:none;stroke-width:1;marker:none;visibility:visible;display:inline;overflow:visible;enable-background:accumulate"
       id="path3194"
       d="m 28,14 -1,0 0,1 c 0,1.436187 -1,2 -2,2 L 7,17 C 6,17 5,16.191135 5,15 L 5,7 C 5,5.825202 6,5 7,5 l 18,0 c 1.174798,0 2,0.8366321 2,2 l 0,1 1,0 c 1,0 2,0.8039585 2,2 l 0,2 c 0,1.196607 -1.00292,2 -2,2 z M 6.5227772,4 C 5.4147772,4 4,5.4637876 4,6.5717876 L 4,15.477223 C 4,16.585223 5.431114,18 6.539114,18 l 18.987119,0 C 26.634233,18 28,17 28,15.54257 L 28,15 28.428212,15 C 30,15 31,13.65057 31,12.411876 L 31,9.5 C 31,8.392 30,7 28.5,7 L 28,7 28,6.4737669 C 28,5.2187358 26.764927,4 25.477223,4 L 6.5227772,4 z" />
    <path
       style="opacity:0.3;fill:none;stroke:#000000;stroke-width:0.5;stroke-linecap:butt;stroke-linejoin:miter;stroke-miterlimit:4;stroke-opacity:1;stroke-dasharray:none"
       id="path3196"
       d="m 27.25,9.2244976 0,3.5255024 c 0.753172,0 1.5,0.04671 1.5,-0.75 l 0,-2 c 0,-0.7901996 -0.750182,-0.7755024 -1.5,-0.7755024 z" />
  </g>
  <g
     id="g2387"
     transform="translate(0.995576,0)">
    <path
       style="opacity:0.3;fill:#000000;fill-opacity:1;fill-rule:evenodd;stroke:none"
       id="path3160"
       d="m 14.865601,6.5366347 c -0.194831,0.071906 -0.32106,0.2612502 -0.3125,0.46875 l 0,3.2187503 -5.3124998,-2.6562503 c -0.224366,-0.1467006 -0.525174,-0.083741 -0.671875,0.140625 -0.146701,0.2243657 -0.083741,0.5251744 0.140625,0.671875 l 7.9999998,7.0000003 c 0.143781,0.117352 0.342443,0.141006 0.509758,0.06069 0.167316,-0.08031 0.273121,-0.250109 0.271492,-0.435694 l 0,-2.3125 4.34375,1.75 c 0.2127,0.09896 0.465772,0.02917 0.597686,-0.164823 0.131914,-0.193991 0.103783,-0.454999 -0.06644,-0.616427 l -7,-7.0000003 c -0.12809,-0.135504 -0.323213,-0.184285 -0.5,-0.125 z" />
    <path
       style="fill:#3a3935;fill-opacity:1;fill-rule:evenodd;stroke:none"
       id="path3172"
       d="m 22.002212,14.005385 -6.999999,-7.0000002 0,4.0000002 -6.0000011,-3.0000002 8.0000011,7.0000002 0,-3 4.999999,2 z" />
  </g>
</svg>
